X:1031
T:Red Bee, The
R:reel
C:Joe Liddy (1906-1992)
Z:id:hn-reel-1031
M:C|
L:1/8
K:Bm
fBBA BAFA | dBcA BAFE | FBBA Bcde | fded cdeg |
fB~B2 cBAF | EFAB cBce | fafe cBAF |1 EFAc B2ce :|2 EFAc ~B3A ||
|: B2cB fB~B2 | afge fecA | B2cB fB~B2 | AFEF ABcA |
B2cB fBcB | afge fece | fafe cBAF |1 EFAc ~B3A :|2 EFAc ~B3c || 
|: d2fd adbd | afef edBc | defd edfe | dBAF E2FA |
d2fd adbd | afef edBA | fBBA FEFA |1 BdcA ~B3c :|2 BdcA B2ce ||

